X:86
T:Humours of Tullycrine, The
T:Humours of Tullycreen, The
R:hornpipe
H:See also "Bobby Casey's", #34
D:Michael Tubridy: The Eagle's Whistle
Z:id:hn-hornpipe-86
M:C|
K:Ador
AG|EAAB cBcd|eaag (3efe dB|c2Ac BAGA|Bdde dBAG|
AGAB cBcd|eaag (3efe dB|c2Ac BAGB|A2AG A2:|
|:(3Bcd|eaag aged|eaag aged|dgga g2ed|dgga gedB|
A2AB cBcd|eaag (3efe dB|c2Ac dBGB|A2AG A2:|
<end>
<start>
